school/img/icons/inst.svg

<svg width="25" height="25" viewBox="0 0 25 25" fill="none" xmlns="http://www.w3.org/2000/svg">
<path d="M12.5028 6.09032C8.95566 6.09032 6.09453 8.95208 6.09453 12.5C6.09453 16.0479 8.95566 18.9097 12.5028 18.9097C16.0499 18.9097 18.911 16.0479 18.911 12.5C18.911 8.95208 16.0499 6.09032 12.5028 6.09032ZM12.5028 16.6671C10.2105 16.6671 8.33659 14.7983 8.33659 12.5C8.33659 10.2017 10.205 8.33287 12.5028 8.33287C14.8006 8.33287 16.669 10.2017 16.669 12.5C16.669 14.7983 14.795 16.6671 12.5028 16.6671ZM20.6679 5.82813C20.6679 6.65932 19.9986 7.32316 19.1732 7.32316C18.3422 7.32316 17.6785 6.65374 17.6785 5.82813C17.6785 5.00251 18.3477 4.33309 19.1732 4.33309C19.9986 4.33309 20.6679 5.00251 20.6679 5.82813ZM24.9122 7.34548C24.8173 5.3428 24.36 3.56884 22.8932 2.10727C21.432 0.64571 19.6584 0.188274 17.6562 0.0878612C15.5926 -0.0292871 9.40742 -0.0292871 7.34384 0.0878612C5.34718 0.182696 3.57362 0.640132 2.1068 2.1017C0.639989 3.56326 0.188232 5.33722 0.0878416 7.3399C-0.0292805 9.40394 -0.0292805 15.5905 0.0878416 17.6545C0.182655 19.6572 0.639989 21.4312 2.1068 22.8927C3.57362 24.3543 5.34161 24.8117 7.34384 24.9121C9.40742 25.0293 15.5926 25.0293 17.6562 24.9121C19.6584 24.8173 21.432 24.3599 22.8932 22.8927C24.3544 21.4312 24.8118 19.6572 24.9122 17.6545C25.0293 15.5905 25.0293 9.40952 24.9122 7.34548ZM22.2462 19.8692C21.8112 20.9626 20.969 21.8049 19.8703 22.2456C18.225 22.8983 14.321 22.7477 12.5028 22.7477C10.6846 22.7477 6.77496 22.8927 5.13525 22.2456C4.04211 21.8105 3.19994 20.9681 2.75934 19.8692C2.1068 18.2235 2.25739 14.3186 2.25739 12.5C2.25739 10.6814 2.11238 6.77089 2.75934 5.13082C3.19437 4.03743 4.03653 3.19508 5.13525 2.75438C6.78054 2.1017 10.6846 2.25232 12.5028 2.25232C14.321 2.25232 18.2306 2.10727 19.8703 2.75438C20.9635 3.1895 21.8056 4.03185 22.2462 5.13082C22.8988 6.77647 22.7482 10.6814 22.7482 12.5C22.7482 14.3186 22.8988 18.2291 22.2462 19.8692Z" fill="white"/>
</svg>

<svg width="25" height="25" fill="none" xmlns="http://www.w3.org/2000/svg"><path d="M12.503 6.09a6.399 6.399 0 00-6.408 6.41 6.399 6.399 0 006.408 6.41 6.399 6.399 0 006.408-6.41 6.399 6.399 0 00-6.408-6.41zm0 10.577A4.174 4.174 0 018.337 12.5a4.17 4.17 0 014.166-4.167 4.17 4.17 0 014.166 4.167 4.174 4.174 0 01-4.166 4.167zm8.165-10.839c0 .831-.67 1.495-1.495 1.495a1.495 1.495 0 111.495-1.495zm4.244 1.517c-.095-2.002-.552-3.776-2.019-5.238C21.432.646 19.658.188 17.656.087c-2.063-.116-8.249-.116-10.312 0-1.997.096-3.77.553-5.237 2.015C.64 3.563.188 5.337.087 7.34c-.116 2.064-.116 8.25 0 10.314.096 2.003.553 3.777 2.02 5.239 1.467 1.461 3.235 1.919 5.237 2.02 2.063.116 8.249.116 10.312 0 2.002-.096 3.776-.553 5.237-2.02 1.461-1.462 1.919-3.236 2.02-5.239.116-2.063.116-8.244 0-10.309zM22.246 19.87a4.218 4.218 0 01-2.376 2.377c-1.645.652-5.549.502-7.367.502-1.818 0-5.728.145-7.368-.502a4.218 4.218 0 01-2.376-2.377c-.652-1.645-.502-5.55-.502-7.369s-.145-5.73.502-7.37a4.218 4.218 0 012.376-2.376c1.646-.652 5.55-.502 7.368-.502 1.818 0 5.728-.145 7.367.502a4.218 4.218 0 012.376 2.377c.653 1.645.502 5.55.502 7.369s.15 5.73-.502 7.37z" fill="#fff"/></svg>
